X:1
T:Nearer
T:Nearer
T:Frederick Eberhard Rimanoczy
T:R. B. Lockwood, 1901
T:Public Domain Courtesy of the Cyber Hymnal™
C:Frederick Eberhard Rimanoczy
Z:Public Domain
Z:Courtesy of the Cyber Hymnal™
%%score ( 1 2 ) ( 3 4 )
L:1/8
Q:1/4=90
M:6/8
K:Bb
V:1 treble 
V:2 treble 
V:3 bass 
V:4 bass 
V:1
 [Fd][Ec][DB] [DF][^C=E][DF] | [EG]3 [EB]3 | [DF][B,D][DF] [=EB][Ec][Ed] | [_Ec]4 z2 | %4
w: 1.~Near- er to Him that hath|loved me,|Near- er to Him who hath|died;|
w: 2.~Near- er the foun- tain of|bless- ing,|Near- er the soul cleans- ing|tide;|
w: 3.~Near- er to Je- sus, my|Sav- ior,|Near- er, still near- er His|side;|
w: 4.~Near- er to robes of pure|white- ness,|Near- er where loved ones a-|bide;|
 [Fd][Ec][DB] [DF][^C=E][DF] | [EG]3 [EB]3 | [DF][FB][Ge] [Fd]2 [_Ec] | [DB]3- [DB]2 z || %8
w: Near- er through cross- es and|tri- als,|Near- er the Cru- ci-|fied. *|
w: Near- er the blood of the|sprink- ling,|Near- er the riv- en|side. *|
w: Near- er my bless- èd Re-|deem- er,|Near- er my shepherd and|guide. *|
w: Near- er the throne of His|mer- cy,|Near- er the glor- i-|fied. *|
"^Refrain" [Fc]3 [Dd]2 z | [=Ed][Ec][EG] c2 !fermata!F | [Fd][Ec][DB] [DF][^C=E][DF] | %11
w: |||
w: |||
w: |||
w: |||
 [EG]3 [EB]3 | [DF][FB][Ge] d2 [_Ec] | [DB]3- [DB]2 z |] %14
w: |||
w: |||
w: |||
w: |||
V:2
 x6 | x6 | x6 | x6 | x6 | x6 | x6 | x6 || x6 | x3 _E3 | x6 | x6 | x3 (F=E) x | x6 |] %14
V:3
 [B,,B,][B,,B,][B,,B,] [B,,B,][B,,B,][B,,B,] | [E,B,]3 [G,B,]3 | %2
w: ~ ~ ~ ~ ~ ~|~ ~|
 [B,,B,][B,,F,][B,,B,] [C,B,][C,B,][C,B,] | [F,A,]4 z2 | %4
w: ~ ~ ~ ~ ~ ~|~|
 [B,,B,][B,,B,][B,,B,] [B,,B,][B,,B,][B,,B,] | [E,B,]3 [G,B,]3 | [B,,B,][D,B,][C,C] F,2 [F,A,] | %7
w: ~ ~ ~ ~ ~ ~|~ ~|~ ~ ~ ~ ~|
 [B,,B,]3- [B,,B,]2 z || [F,A,]3 [B,,F,]2 z | [C,B,][C,B,][C,B,] [F,A,]3 | %10
w: ~ *|Near- er,|near- er to Him,|
 [B,,B,][B,,B,][B,,B,] [B,,B,][B,,B,][B,,B,] | [E,B,]3 [G,B,]3 | [B,,B,][D,B,][C,C] (F,G,)[F,A,] | %13
w: Near- er to Je- sus, my|Sav- ior,|Near- er the Cru- * ci-|
 [B,,B,]3- [B,,B,]2 z |] %14
w: fied. *|
V:4
 x6 | x6 | x6 | x6 | x6 | x6 | x3 F,2 x | x6 || x6 | x6 | x6 | x6 | x3 F,2 x | x6 |] %14

